!!!!SEGMENT: Div2005-Ista_est_speciosa.krn
!!!id: Div2005
!!!AGN: Motet
!!!voices: 5
!!!COM: Antonius Divitis
!!!OTL: Ista est speciosa
**kern	**kern	**kern	**kern	**kern
*part5	*part4	*part3	*part2	*part1
*staff5	*staff4	*staff3	*staff2	*staff1
*I"Bassus	*I"Tenor II	*I"Tenor I	*I"Altus	*I"Superius
*I'B	*I'T. II	*I'T. I	*I'A	*I'S
*clefF4	*clefGv2	*clefGv2	*clefGv2	*clefG2
*k[]	*k[]	*k[]	*k[]	*k[]
*M2/1	*M2/1	*M2/1	*M2/1	*M2/1
*met(C|)	*met(C|)	*met(C|)	*met(C|)	*met(C|)
=1	=1	=1	=1	=1
!!section: Prima pars: Ista est speciosa
!!!OMD: Prima pars: Ista est speciosa
!	!LO:TX:a:t=Canon&colon; tenor II/superius/bassus/tenor I at the upper octave, lower fifth, and upper forth	!	!	!
0r	0E	0r	2.B	0r
.	.	.	8AL	.
.	.	.	8BJ	.
.	.	.	2c	.
.	.	.	2B	.
=2	=2	=2	=2	=2
0r	0B	0r	2.G	0r
.	.	.	4A	.
.	.	.	4B	.
.	.	.	4c	.
.	.	.	4d	.
.	.	.	4B	.
=3	=3	=3	=3	=3
0r	1A	0r	2.c	0e
.	.	.	4B	.
.	1c	.	4A	.
.	.	.	4G	.
.	.	.	2A	.
=4	=4	=4	=4	=4
0r	1B	0r	2G	0b
.	.	.	2d	.
.	1G	.	2e	.
.	.	.	[2g	.
=5	=5	=5	=5	=5
0AA	0A	0r	2g]	1a
.	.	.	4f#i	.
.	.	.	4e	.
.	.	.	1f#i	1cc
=6	=6	=6	=6	=6
0E	0G	0r	2.g	1b
.	.	.	4f	.
.	.	.	4e	1g
.	.	.	4d	.
.	.	.	2e	.
=7	=7	=7	=7	=7
1D	0r	0A	2.f	0a
.	.	.	8eL	.
.	.	.	8dJ	.
1F	.	.	2c	.
.	.	.	[2d	.
=8	=8	=8	=8	=8
1E	0r	0e	4d]	0g
.	.	.	4G	.
.	.	.	2G	.
1C	.	.	4A	.
.	.	.	4G	.
.	.	.	[2c	.
=9	=9	=9	=9	=9
0D	1d	1d	2c]	0r
.	.	.	4B	.
.	.	.	4A	.
.	1d	1f	1B	.
=10	=10	=10	=10	=10
0C	1.e	1e	1c	0r
.	.	1c	1c	.
.	4d	.	.	.
.	4c	.	.	.
=11	=11	=11	=11	=11
0r	2B	0d	1G	1dd
.	1c	.	.	.
.	.	.	1G	1dd
.	2B	.	.	.
=12	=12	=12	=12	=12
0r	0c	0c	1.g	1.ee
.	.	.	4f	4dd
.	.	.	4e	4cc
=13	=13	=13	=13	=13
1G	0r	0r	2d	2b
.	.	.	2e	1cc
1G	.	.	1d	.
.	.	.	.	2b
=14	=14	=14	=14	=14
1.A	0r	0r	1.c	0cc
4G	.	.	4B	.
4F	.	.	4A	.
=15	=15	=15	=15	=15
2E	0c	1g	2.G	0r
1F	.	.	.	.
.	.	.	4F	.
.	.	1g	1G	.
2E	.	.	.	.
=16	=16	=16	=16	=16
0F	1c	1.a	1r	0r
.	1c	.	1F	.
.	.	4g	.	.
.	.	4f	.	.
=17	=17	=17	=17	=17
0r	0A	2e	1c	0cc
.	.	1f	.	.
.	.	.	1c	.
.	.	2e	.	.
=18	=18	=18	=18	=18
0r	1r	0f	0F	1cc
.	[1A	.	.	1cc
=19	=19	=19	=19	=19
0F	1A]	0r	2r	0a
.	.	.	2c	.
.	1A	.	2d	.
.	.	.	[2f	.
=20	=20	=20	=20	=20
1F	1A	0r	2f]	1r
.	.	.	4e	.
.	.	.	4d	.
1F	1A	.	1c	[1a
=21	=21	=21	=21	=21
0D	1d	0f	1r	1a]
.	1d	.	[1f	1a
=22	=22	=22	=22	=22
1r	0A	1f	1f]	1a
[1D	.	1f	1f	1a
=23	=23	=23	=23	=23
1D]	0r	0d	1f	1dd
1D	.	.	1f	1dd
=24	=24	=24	=24	=24
1D	0r	1r	1f	0a
1D	.	[1d	1f	.
=25	=25	=25	=25	=25
1G	0r	1d]	2g	0r
.	.	.	2G	.
1G	.	1d	[1B-X	.
=26	=26	=26	=26	=26
0D	0r	1d	2B-]	0r
.	.	.	4A	.
.	.	.	4G	.
.	.	1d	2.A	.
.	.	.	4BnXi	.
=27	=27	=27	=27	=27
0r	1c	1g	4c	0r
.	.	.	4d	.
.	.	.	1e	.
.	1c	1g	.	.
.	.	.	4d	.
.	.	.	4c	.
=28	=28	=28	=28	=28
0r	1B	0d	2d	0r
.	.	.	2G	.
.	1G	.	[1g	.
=29	=29	=29	=29	=29
0r	0A	0r	2g]	1cc
.	.	.	4f#i	.
.	.	.	4e	.
.	.	.	1f#i	1cc
=30	=30	=30	=30	=30
0r	1G	0r	1g	1b
.	2r	.	2.d	1g
.	[2G	.	.	.
.	.	.	4e	.
=31	=31	=31	=31	=31
1F	2G]	0r	0f	0a
.	4F	.	.	.
.	4E	.	.	.
1F	2F	.	.	.
.	2F	.	.	.
=32	=32	=32	=32	=32
1E	0G	0r	2r	1g
.	.	.	2.g	.
1C	.	.	.	2r
.	.	.	4f	.
.	.	.	2e	[2g
=33	=33	=33	=33	=33
0D	0r	1f	2d	2g]
.	.	.	2.c	4f
.	.	.	.	4e
.	.	1f	.	2f
.	.	.	4A	.
.	.	.	2B	2f
=34	=34	=34	=34	=34
1C	0r	1e	0E	0g
2r	.	1c	.	.
[2C	.	.	.	.
=35	=35	=35	=35	=35
2C]	1.G	0d	0r	0r
4BB	.	.	.	.
4AA	.	.	.	.
2BB	.	.	.	.
2BB	2G	.	.	.
=36	=36	=36	=36	=36
0C	1G	1c	0r	0r
.	1G	2r	.	.
.	.	[2c	.	.
=37	=37	=37	=37	=37
0r	1.G	2c]	1.E	1.g
.	.	4B	.	.
.	.	4A	.	.
.	.	2B	.	.
.	4F	2B	2F	2g
.	4E	.	.	.
=38	=38	=38	=38	=38
0r	[0El	0c	0G	1g
.	.	.	.	1g
=39	=39	=39	=39	=39
1.C	0E_	0r	0E	1.g
2C	.	.	.	4f
.	.	.	.	4e
=40	=40	=40	=40	=40
1C	0E_	0r	1G	[0el
1C	.	.	2G	.
.	.	.	[2c	.
=41	=41	=41	=41	=41
1.C	0E_	1.c	2c]	0e_
.	.	.	4B	.
.	.	.	4A	.
.	.	.	2G	.
4BB	.	2c	[2g	.
4AA	.	.	.	.
=42	=42	=42	=42	=42
[0AAl	0E_	1c	2g]	0e_
.	.	.	2f	.
.	.	1c	2.e	.
.	.	.	4d	.
=43	=43	=43	=43	=43
0AA_	0E_	1.c	2c	0e_
.	.	.	2B	.
.	.	.	2.A	.
.	.	4B	.	.
.	.	4A	4F	.
=44	=44	=44	=44	=44
0AA_	0E_	[0Al	1.A	0e_
.	.	.	2B	.
=45	=45	=45	=45	=45
0AA]	0E]	0A]	0cl	0e]
==	==	==	==	==
*-	*-	*-	*-	*-
!!!system-decoration: s1,s2,s3,s4,s5
!!!RDF**kern: i = editorial accidental
!!!RDF**kern: l = terminal long
!!!ENC: Janosch Umbreit
!!!END: 2026/03/13
!!!EED: Benjamin Ory
!!!EEV: 2026/06/10
!!!YEC: Copyright 2026 Benjamin Ory, All Rights Reserved
!!!ONB: Translated from MusicXML on 2026/06/10
!!muse2ps: C^@{COM}^i2I150v90,90,90,90,120c120z18l2770t130
